X:288
T: DER KUCKUK AUF DEM ZAUNE SASS
N: E0881
O: Europa, Mitteleuropa, Deutschland
R: Hochzeits -, Ehestands - Lied
M: 6/8
L: 1/8
K: A
E | A2AcBA | B2GA2
e | c2eB2e | AAGA2
c | B2BG2B | AGFE2
E | A2AB2B | c3ed
B | A2AccB | A2z3

